X: 2380
M: C
L: 1/8
K: F	% and Dm
(uAB) |\
c=BcA d_Bfd | cAFA  cAdc |\
c=BcA d_Bfd | cAFA  cdef |\
defg  efga  | f2f2f2 :|
|: (uef) |\
aAgA  fAeA | fAeA dAfA |\
eA^ce agfe | fgef defg |\
aAgA  fAeA | fAeA dAdf |\
defg  efga | f2f2f2 :|


